X: 38196
T: Spring In Her Step
R: slip jig
M: 9/8
K: Dminor
"Dm" d2a g2 a fad|"F" c2 a gaf g2 a|"Bb" B2 d f2 B dfc|"Dm" cdc df/g/"Dm7"a c'2 d'|
"Dm" a2 g afd gaf|"F" g2 f gad c2 d|"Bb" B2 d f2 B dfc|"Dm" d2 f dA"Dm7"c GAc|
"Dm" d2a g2 a fad|"F" c2 a gaf g2 a|"Bb" B2 d f2 B dfc|"Dm" cdc df/g/"Dm7"a c'2 d'|
"Dm" a2 g afd gaf|"F" g2 f gad c2 d|"Bb" B2 d f2 B dfc|"Dm" d2 c df"Dm7"g ad'c'|

